!!!OTL: Huangying zhanchi
!!!ARE: Asia, China,ÿGansu, Liangdang
!! I, 144
!!!SCT: C1425
!!!YEM: Copyright 1995, estate of Helmut Schaffrath.
**kern
*ICvox
*Ivox
!! 2+3 metric grouping
!! Mixed meters:  4/4; 5/4
*M5/4
*k[b-e-]
*B-:
{16gg
16bb-
4ff
8gg
8bb-
8ccc
8bb-
16bb-
16gg
=1
16bb-
16gg
4ff}
{16gg
16bb-
4.ff
8gg
=2
8bb-
8ccc
8bb-
16bb-
16gg
16bb-
16gg
4.ff}
=3
{8.fff
16ddd
8ccc
8ddd
8fff
16ccc
16ddd
2fff}
=4
*M4/4
{8.ff
16gg
8bb-
8bb-
16ccc
16bb-
16gg
16bb-
4ff}
=5
{8ff
8fff
8ddd
16ddd
16ddd
16ccc
16ddd
8bb-
8ccc
8bb-}
=6
{8ff
8fff
8ddd
16ddd
16ddd
16ccc
16ddd
8bb-
8ccc
8bb-}
=7
{8.gg
16bb-
8gg
8bb-
16gg
16bb-
8ddd
8ccc
16bb-
16gg}
=8
{4ddd
8ccc
16bb-
16gg
16ff
16gg
8ccc
4.bb-
8r}
==
!!!AGN: Xiaodiao, Fengsuge
!!!ONB: ESAC (Essen Associative Code) Database: HUANG
!!!AMT: irregular
!!!AIN: vox
!!!EED: Helmut Schaffrath
!!!EEV: 1.0
*-
